packages/tokens/icons/dollars/size64Px.svg

<svg viewBox="0 0 64 64" fill="none" xmlns="http://www.w3.org/2000/svg" width="1em" height="1em"><path d="M48 23.45V22.5V22.5C48 16.9772 43.5228 12.5 38 12.5L25.75 12.5C20.3652 12.5 16 16.8652 16 22.25V22.25C16 27.6348 20.3652 32 25.75 32H38C43.5228 32 48 36.4772 48 42V42C48 47.5228 43.5228 52 38 52H25.5C20.2533 52 16 47.7467 16 42.5V42.5L16 40.6" stroke="currentColor" stroke-linecap="round"/><path d="M32 4V60" stroke="currentColor" stroke-linecap="round"/></svg>

<svg xmlns="http://www.w3.org/2000/svg" fill="none" viewBox="0 0 64 64" width="1em" height="1em"><path stroke="currentColor" stroke-linecap="round" d="M48 23.45v-.95 0c0-5.523-4.477-10-10-10H25.75A9.75 9.75 0 0 0 16 22.25v0A9.75 9.75 0 0 0 25.75 32H38c5.523 0 10 4.477 10 10v0c0 5.523-4.477 10-10 10H25.5a9.5 9.5 0 0 1-9.5-9.5v0-1.9M32 4v56"/></svg>
